img/icons/user/Add_Plus_Square.svg

<svg width="20" height="21" viewBox="0 0 20 21" fill="none" xmlns="http://www.w3.org/2000/svg">
<path d="M14.0002 16.7544V15.7544V16.7544ZM6.00017 16.7544L6.00017 17.7544H6.00017V16.7544ZM16.6668 14.0877H17.6668H16.6668ZM16.4852 15.8444L17.3762 16.2984L16.4852 15.8444ZM15.7565 16.5727L16.2105 17.4637L15.7565 16.5727ZM15.7565 3.60272L16.2105 2.71172L15.7565 3.60272ZM16.6668 6.08775L15.6668 6.08775V6.08775H16.6668ZM16.4852 4.3311L15.5942 4.78509L16.4852 4.3311ZM3.51499 4.3311L2.62399 3.87711L2.62399 3.87711L3.51499 4.3311ZM4.24317 3.60272L4.69716 4.49373H4.69716L4.24317 3.60272ZM3.51499 15.8444L4.406 15.3904H4.406L3.51499 15.8444ZM4.24317 16.5727L4.69716 15.6817L4.24317 16.5727ZM6.66667 9.08773C6.11438 9.08773 5.66667 9.53545 5.66667 10.0877C5.66667 10.64 6.11438 11.0877 6.66667 11.0877V9.08773ZM13.3333 11.0877C13.8856 11.0877 14.3333 10.64 14.3333 10.0877C14.3333 9.53545 13.8856 9.08773 13.3333 9.08773V11.0877ZM9 13.4211C9 13.9734 9.44772 14.4211 10 14.4211C10.5523 14.4211 11 13.9734 11 13.4211H9ZM11 6.7544C11 6.20211 10.5523 5.7544 10 5.7544C9.44772 5.7544 9 6.20211 9 6.7544H11ZM4.33334 14.0877V6.08774H2.33334V14.0877H4.33334ZM6.00017 4.42107H14.0002V2.42107H6.00017V4.42107ZM14.0002 15.7544H6.00017V17.7544H14.0002V15.7544ZM15.6668 14.0877C15.6668 14.5709 15.6661 14.8732 15.6475 15.101C15.6298 15.317 15.6012 15.3766 15.5942 15.3904L17.3762 16.2984C17.5508 15.9556 17.6131 15.6036 17.6408 15.2638C17.6676 14.9357 17.6668 14.5379 17.6668 14.0877H15.6668ZM14.0002 17.7544C14.4504 17.7544 14.8481 17.7552 15.1761 17.7284C15.5159 17.7006 15.8678 17.6383 16.2105 17.4637L15.3025 15.6817C15.2886 15.6888 15.2291 15.7174 15.0132 15.735C14.7855 15.7536 14.4834 15.7544 14.0002 15.7544V17.7544ZM15.5942 15.3904C15.5305 15.5154 15.4284 15.6176 15.3025 15.6817L16.2105 17.4637C16.7118 17.2083 17.1203 16.8006 17.3762 16.2984L15.5942 15.3904ZM14.0002 4.42107C14.4834 4.42107 14.7856 4.42184 15.0132 4.44045C15.2291 4.4581 15.2887 4.48667 15.3025 4.49373L16.2105 2.71172C15.8678 2.53712 15.5159 2.47486 15.1761 2.4471C14.8481 2.42029 14.4504 2.42107 14.0002 2.42107V4.42107ZM17.6668 6.08775C17.6668 5.63754 17.6676 5.23974 17.6408 4.91166C17.6131 4.57189 17.5508 4.21984 17.3762 3.87711L15.5942 4.78509C15.6012 4.79888 15.6298 4.85844 15.6475 5.07452C15.6661 5.30227 15.6668 5.60454 15.6668 6.08775L17.6668 6.08775ZM15.3025 4.49373C15.4284 4.55785 15.5305 4.66006 15.5942 4.78509L17.3762 3.87711C17.1203 3.37494 16.7118 2.96717 16.2105 2.71172L15.3025 4.49373ZM4.33334 6.08774C4.33334 5.60453 4.33411 5.30227 4.35272 5.07452C4.37038 4.85844 4.39897 4.79888 4.406 4.78509L2.62399 3.87711C2.44936 4.21984 2.38712 4.57189 2.35936 4.91165C2.33256 5.23974 2.33334 5.63753 2.33334 6.08774H4.33334ZM6.00017 2.42107C5.54995 2.42107 5.15208 2.42029 4.82392 2.44709C4.48415 2.47484 4.13196 2.53706 3.78918 2.71172L4.69716 4.49373C4.71089 4.48673 4.77049 4.45812 4.98673 4.44045C5.21459 4.42184 5.51696 4.42107 6.00017 4.42107V2.42107ZM4.406 4.78509C4.47005 4.65939 4.57197 4.55751 4.69716 4.49373L3.78918 2.71172C3.28715 2.96751 2.87952 3.3756 2.62399 3.87711L4.406 4.78509ZM2.33334 14.0877C2.33334 14.538 2.33256 14.9357 2.35936 15.2638C2.38712 15.6036 2.44936 15.9556 2.62399 16.2984L4.406 15.3904C4.39897 15.3766 4.37038 15.317 4.35272 15.101C4.33411 14.8732 4.33334 14.571 4.33334 14.0877H2.33334ZM6.00017 15.7544C5.51698 15.7544 5.2146 15.7536 4.98676 15.735C4.77052 15.7173 4.71091 15.6887 4.69716 15.6817L3.78918 17.4637C4.13195 17.6384 4.48412 17.7006 4.8239 17.7284C5.15207 17.7552 5.54993 17.7544 6.00017 17.7544L6.00017 15.7544ZM2.62399 16.2984C2.87954 16.7999 3.28719 17.208 3.78918 17.4637L4.69716 15.6817C4.57193 15.6179 4.47002 15.516 4.406 15.3904L2.62399 16.2984ZM15.6668 6.08775V14.0877H17.6668V6.08775H15.6668ZM6.66667 11.0877H13.3333V9.08773H6.66667V11.0877ZM11 13.4211V6.7544H9V13.4211H11Z" fill="#F56311"/>
</svg>

<svg width="20" height="21" fill="none" xmlns="http://www.w3.org/2000/svg"><path d="M14 16.754v-1 1Zm-8 0v1-1Zm10.667-2.666h1-1Zm-.182 1.756.891.454-.89-.454Zm-.728.729.454.89-.454-.89Zm0-12.97.454-.891-.454.89Zm.91 2.485h-1 1Zm-.182-1.757-.89.454.89-.454Zm-12.97 0-.891-.454.891.454Zm.728-.728.454.89-.454-.89Zm-.728 12.241.891-.454-.891.454Zm.728.729.454-.891-.454.89Zm2.424-7.485a1 1 0 1 0 0 2v-2Zm6.666 2a1 1 0 1 0 0-2v2ZM9 13.42a1 1 0 1 0 2 0H9Zm2-6.667a1 1 0 1 0-2 0h2Zm-6.667 7.334v-8h-2v8h2ZM6 4.42h8v-2H6v2Zm8 11.333H6v2h8v-2Zm1.667-1.666c0 .483 0 .785-.02 1.013-.017.216-.046.276-.053.29l1.782.907c.175-.342.237-.694.265-1.034.027-.328.026-.726.026-1.176h-2ZM14 17.754c.45 0 .848.001 1.176-.026.34-.027.692-.09 1.034-.264l-.908-1.782c-.013.007-.073.035-.289.053-.227.019-.53.02-1.013.02v2Zm1.594-2.364a.667.667 0 0 1-.291.292l.907 1.782c.502-.256.91-.663 1.166-1.166l-1.782-.908ZM14 4.421c.483 0 .786 0 1.013.02.216.017.276.046.29.053l.907-1.782c-.342-.175-.694-.237-1.034-.265-.328-.027-.726-.026-1.176-.026v2Zm3.667 1.667c0-.45 0-.848-.026-1.176-.028-.34-.09-.692-.265-1.035l-1.782.908c.007.014.036.073.054.29.018.227.019.53.019 1.013h2Zm-2.365-1.594a.667.667 0 0 1 .292.291l1.782-.908a2.668 2.668 0 0 0-1.166-1.165l-.908 1.782ZM4.334 6.088c0-.483.001-.786.02-1.013.017-.217.046-.276.053-.29l-1.782-.908c-.175.343-.237.695-.265 1.035-.026.328-.026.726-.026 1.176h2ZM6 2.42c-.45 0-.848 0-1.176.026-.34.028-.692.09-1.035.265l.908 1.782c.014-.007.073-.036.29-.054.228-.018.53-.019 1.013-.019v-2ZM4.406 4.785a.666.666 0 0 1 .291-.291L3.79 2.712c-.502.256-.91.664-1.165 1.165l1.782.908Zm-2.073 9.303c0 .45 0 .848.026 1.176.028.34.09.692.265 1.034l1.782-.908c-.007-.013-.036-.073-.053-.289a14.06 14.06 0 0 1-.02-1.013h-2ZM6 15.754c-.483 0-.785 0-1.013-.019-.216-.018-.276-.046-.29-.053l-.908 1.782c.343.174.695.237 1.035.264.328.027.726.026 1.176.026v-2Zm-3.376.544c.256.502.663.91 1.165 1.166l.908-1.782a.666.666 0 0 1-.291-.292l-1.782.908Zm13.043-10.21v8h2v-8h-2Zm-9 5h6.666v-2H6.667v2ZM11 13.42V6.754H9v6.667h2Z" fill="#F56311"/></svg>
